16x16/panel/skype-status-away.svg

<svg height="16" width="16" xmlns="http://www.w3.org/2000/svg"><path d="m4.5 1a3.5 3.5 0 0 0 -3.5 3.5 3.5 3.5 0 0 0 1.086 2.53 6 6 0 0 0 -.086.97 6 6 0 0 0 6 6 6 6 0 0 0 .97-.082 3.5 3.5 0 0 0 2.53 1.082 3.5 3.5 0 0 0 3.5-3.5 3.5 3.5 0 0 0 -1.086-2.53 6 6 0 0 0 .086-.97 6 6 0 0 0 -6-6 6 6 0 0 0 -.97.082 3.5 3.5 0 0 0 -2.53-1.082zm3.5 4v2h4v2h-4v2l-4-3z" fill="#bebebe"/></svg>

<svg height="16" width="16" xmlns="http://www.w3.org/2000/svg">
    <path d="M4.5 1A3.5 3.5 0 0 0 1 4.5a3.5 3.5 0 0 0 1.086 2.53A6 6 0 0 0 2 8a6 6 0 0 0 6 6 6 6 0 0 0 .97-.082A3.5 3.5 0 0 0 11.5 15a3.5 3.5 0 0 0 3.5-3.5 3.5 3.5 0 0 0-1.086-2.53A6 6 0 0 0 14 8a6 6 0 0 0-6-6 6 6 0 0 0-.97.082A3.5 3.5 0 0 0 4.5 1zM8 5v2h4v2H8v2L4 8z" fill="#bebebe"/>
</svg>
